ametion_vv-test/img/icons/social/vk.svg

<svg width="57" height="56" viewBox="0 0 57 56" fill="none" xmlns="http://www.w3.org/2000/svg">
<rect x="0.0045166" width="55.9994" height="55.9994" rx="13.3311" fill="#F9F9F9"/>
<path d="M37.1737 30.6265C39.1957 32.3914 39.616 33.0214 39.6847 33.1289C40.5226 34.4352 38.7555 34.5943 38.7555 34.5943H35.0315C35.0315 34.5943 34.1249 34.6041 33.3503 34.0993C32.0876 33.2862 30.7652 31.7098 29.836 31.9835C29.0559 32.2127 29.0631 33.2489 29.0631 34.1349C29.0631 34.4521 28.7856 34.5943 28.1593 34.5943C27.5329 34.5943 27.2725 34.5943 26.995 34.5943C24.955 34.5943 22.7413 33.9189 20.5331 31.6502C17.4093 28.4431 14.6696 21.9827 14.6696 21.9827C14.6696 21.9827 14.5078 21.6575 14.6841 21.4593C14.8838 21.2371 15.4271 21.2656 15.4271 21.2656L19.0381 21.2647C19.0381 21.2647 19.378 21.3278 19.622 21.4966C19.8236 21.6353 19.9357 21.9001 19.9357 21.9001C19.9357 21.9001 20.5422 23.8693 21.315 25.1249C22.8245 27.5758 23.5268 27.638 24.0393 27.3741C24.7877 26.992 24.5437 24.3865 24.5437 24.3865C24.5437 24.3865 24.5771 23.2677 24.1867 22.7692C23.8857 22.3835 23.3099 22.1782 23.0586 22.1462C22.8552 22.1205 23.1951 21.7703 23.6281 21.5704C24.2065 21.3171 24.9938 21.2523 26.3515 21.2647C27.4081 21.2745 27.7127 21.3367 28.1249 21.43C29.3714 21.7126 29.0631 22.4581 29.0631 25.0761C29.0631 25.9149 28.9456 27.0942 29.5892 27.4852C29.8667 27.654 30.8176 27.8602 32.5097 25.1587C33.3132 23.8773 33.9523 21.7517 33.9523 21.7517C33.9523 21.7517 34.0842 21.518 34.2894 21.4024C34.4991 21.2842 34.4928 21.2869 34.7802 21.2869C35.0677 21.2869 37.9502 21.2647 38.5829 21.2647C39.2147 21.2647 39.8077 21.2576 39.9098 21.6219C40.0562 22.1453 39.4434 23.9386 37.8905 25.8847C35.3388 29.0785 35.0559 28.7799 37.1737 30.6265Z" fill="#36BA5F"/>
</svg>

<svg width="57" height="56" fill="none" xmlns="http://www.w3.org/2000/svg"><rect x=".005" width="55.999" height="55.999" rx="13.331" fill="#F9F9F9"/><path d="M37.174 30.627c2.022 1.764 2.442 2.394 2.51 2.502.839 1.306-.928 1.465-.928 1.465h-3.724s-.907.01-1.682-.495c-1.262-.813-2.585-2.39-3.514-2.115-.78.229-.773 1.265-.773 2.15 0 .318-.277.46-.904.46h-1.164c-2.04 0-4.254-.675-6.462-2.944-3.124-3.207-5.863-9.667-5.863-9.667s-.162-.326.014-.524c.2-.222.743-.193.743-.193l3.611-.001s.34.063.584.232c.202.138.314.403.314.403s.606 1.97 1.379 3.225c1.51 2.45 2.212 2.513 2.724 2.25.749-.383.505-2.988.505-2.988s.033-1.12-.357-1.618c-.301-.385-.877-.59-1.128-.623-.204-.026.136-.376.57-.576.577-.253 1.365-.318 2.723-.305 1.056.01 1.36.072 1.773.165 1.246.283.938 1.028.938 3.646 0 .839-.117 2.018.526 2.41.278.168 1.229.374 2.92-2.327.804-1.282 1.443-3.407 1.443-3.407s.132-.234.337-.35c.21-.118.204-.115.491-.115.288 0 3.17-.022 3.803-.022.632 0 1.225-.007 1.327.357.146.523-.467 2.317-2.02 4.263-2.551 3.193-2.834 2.895-.716 4.741z" fill="#36BA5F"/></svg>
